app/dist/common/images/international-personal-finan.svg

<svg fill="none" height="18" viewBox="0 0 18 18" width="18" xmlns="http://www.w3.org/2000/svg"><path d="m0 0h18v18h-18z" fill="#f0f3fa"/><g clip-rule="evenodd" fill-rule="evenodd"><path d="m12.9988 9.04848c-.0184.78225-4.35819 5.51082-6.11673 4.89662-1.75853-.6142-.39153-6.24275-.11417-7.11503.27736-.87227.98174-3.23094 2.29809-2.77125 1.31631.45969 3.99781 2.23853 3.93281 4.98966z" fill="#ee2839"/><path d="m8.53629 6.00007c.53638.0032 5.46371.51642 5.46371 2.53923 0 2.0228-5.73386 2.4605-6.64395 2.4605s-3.35605.0473-3.35605-1.46683c0-1.51415 2.2354-3.54665 4.53629-3.5329z" fill="#0038a5"/><path d="m6 7h.5v3h-.5z" fill="#f0f3fa"/><path d="m11 7h.5 1v.5h-1v1.00006h1v.5h-1v.99994h-.5v-.99994-.5-1.00006z" fill="#f0f3fa"/><path d="m8 7v3h.5v-1h.59768c.49627 0 .90232-.441.90232-.98001v-.03998c0-.53901-.40605-.98001-.90232-.98001zm.5 1.50006h.45861c.29785 0 .54139-.17415.54139-.47739v-.02261c0-.30325-.24354-.5-.54139-.5h-.45861z" fill="#f0f3fa"/></g></svg>

<!-- by TradingView --><svg width="18" height="18" viewBox="0 0 18 18" fill="none" xmlns="http://www.w3.org/2000/svg">
<rect width="18" height="18" fill="#F0F3FA"/>
<path fill-rule="evenodd" clip-rule="evenodd" d="M12.9988 9.04848C12.9804 9.83073 8.64061 14.5593 6.88207 13.9451C5.12354 13.3309 6.49054 7.70235 6.7679 6.83007C7.04526 5.9578 7.74964 3.59913 9.06599 4.05882C10.3823 4.51851 13.0638 6.29735 12.9988 9.04848Z" fill="#EE2839"/>
<path fill-rule="evenodd" clip-rule="evenodd" d="M8.53629 6.00007C9.07267 6.00327 14 6.51649 14 8.5393C14 10.5621 8.26614 10.9998 7.35605 10.9998C6.44596 10.9998 4 11.0471 4 9.53297C4 8.01882 6.2354 5.98632 8.53629 6.00007Z" fill="#0038A5"/>
<path fill-rule="evenodd" clip-rule="evenodd" d="M6 7L6.5 7V10H6V7Z" fill="#F0F3FA"/>
<path fill-rule="evenodd" clip-rule="evenodd" d="M11 7H11.5H12.5V7.5H11.5V8.50006H12.5V9.00006H11.5V10H11V9.00006V8.50006V7.5V7Z" fill="#F0F3FA"/>
<path fill-rule="evenodd" clip-rule="evenodd" d="M8 7V10H8.5V9H9.09768C9.59395 9 10 8.559 10 8.01999V7.98001C10 7.441 9.59395 7 9.09768 7H8ZM8.5 8.50006H8.95861C9.25646 8.50006 9.5 8.32591 9.5 8.02267V8.00006C9.5 7.69681 9.25646 7.50006 8.95861 7.50006H8.5V8.50006Z" fill="#F0F3FA"/>
</svg>
